X:704
T:Aoife's Come to Dublin
R:reel
C:Paul S. Cranford SOCAN.
O:20th Century Cape Breton
D:The Lighthouse, Cranford Publications
B:The Lighthouse Collection, ISBN 0-9691181-5-5
N:Contacts ...
N:..... Cranford Publications <http://www.cranfordpub.com>
H:Composed for the fiddler Aoife O'Keeffe
Z:This abc transcription is for personal use only,
Z:provided this notice remains attached.
Z:Used by permission of the composer and publisher.
Z:Paul Stewart Cranford 
Q:300
L:1/8
M:C|
K:G
G2 BG AcBA|BEE2 c2 BA|(3(Bcd) gf edcB|Aaag fdcA|!
G2 BG AcBA|BEE2 c2 BA|(3(Bcd) ge fa eg|[1fdef g2 BA:|[2fdef g2||!
|:ga|be e/e/e edBA|GBdB c2 BA|GA (3Bcd edBa|gefg a2 ga|
be e/e/e edBA|GBdB c2 BA|GA (3Bcd eaag|[1fdef g2:|[2fdef gedB|]
